X:1
T:[ID 4-29v]
T:[ID 4-29v]
T:Bezeichnung standardisiert: Polonaise Polon\"aise In dieser Quelle auch als: Polonoise
T:Urheber unbekannt Datum in der hier transkribierten schriftlichen Quelle: 1767
C:Urheber unbekannt
C:Datum in der hier transkribierten schriftlichen Quelle: 1767
L:1/8
M:3/4
K:D
V:1 treble 
V:1
 dA/F/ D2 g2 | fe/d/ c/d/e/c/ A2 | d"^[sic]"c/A/ F2{ef} g2 | f/e/d/c/ d2 D2 :: ae/c/ A2 a2 | %5
 (ag)(gf)(fe) | ae/c/ A2 a2 | (ag)(gf)(fe) | d"^[sic]"c/A/ F2{ef} g2 | f/e/d/c/ d2 D2 :| %10

